!!!SOCIAL_FUNCTION:	songs connected with the treatment of the sick
!!!PDT:	1932
!!!OTL: No_65_Song_of_the_Woodpecker.krn
!!!REG: Wisconsin
!!!LANG: Non-Tone
!!!LING_GROUP: Algonquin
**kern
*staff1
=1-
*clefF4
*k[b-e-a-d-g-]
*M2/4
4r
8r
16e-\LL
16e-\JJ
=2
4e-\
8e-\
16r
16e-\
=3
8e-\L
8d-\J
16c-\
16r
16e-\LL
16e-\JJ
=4
4e-\
16e-\LK
8d-\
16A-\Jk
=5
4A-\
4A-\
=6||
*M3/4
2A-\
16A-\
16r
16B-\LL
16B-\JJ
=7||
*M2/4
4B-\
8.d-\L
16B-\Jk
=8||
*M3/4
4A-\
8.A-\L
16A-\Jk
4A-\
=9||
*M2/4
(8.A-\L
16F\Jk)
16F\
16r
16A-\LL
16A-\JJ
=10||
*M3/4
8.A-\L
16B-\Jk
4A-\
8.A-\L
16A-\Jk
=11||
*M2/4
8F\L
8E-\J
8D-\
16r
16F\
=12
4E-\
4D-\
=13||
*M3/4
2D-\
8r
16E-\LL
16E-\JJ
=14||
*M2/4
4E-\
8.E-\L
16F\Jk
=15||
*M3/4
4D-\
8.D-\L
16D-\Jk
4D-\
=16||
*M2/4
(8.D-/L
16BB-/Jk)
16BB-/
16r
16D-\LL
16D-\JJ
=17||
*M3/4
8.D-\L
16E-\Jk
4D-\
8BB-/L
8AA-/J
=18
2AA-/
4r
==
*-
